X: 11833
T: Eloise
R: waltz
M: 3/4
K: Fmajor
A2 c4|F2 f4|g3 fec|ef- f4|
d2 c3 F|A2 G3 F|F B,2 A,2 B,|C6|
A2 c4|F2 f4|g3 ffe|c2 d3 c|
F3 EAE|D2 C4|B,4 A,2|G,6||
|:D d2 c2 C|GAG- G2 F1/2E1/2|D d2 f2 A|G4-Gf1/2g1/2|
affd c2|AcGF D2|D2 C4|E6:|

